assets/sprite/svg/objects/World_Space_HireMe.svg

<svg height="177" viewBox="0 0 915 177" width="915" xmlns="http://www.w3.org/2000/svg"><g fill="#898989"><path d="m31.2 129.87v-105.87h30.26v45.36h45.39v-45.36h30.26v105.9h-30.26v-45.42h-45.39v45.39z"/><path d="m167.37 129.87v-15.13h30.25v-75.64h-30.25v-15.1h90.77v15.1h-30.26v75.64h30.26v15.13z"/><path d="m273.27 129.87v-105.87h90.78v15.1h15.12v45.38h-30.25v15.13h15.13v15.13h15.12v15.13h-45.38v-15.13h-15.13v-15.13h-15.13v30.26zm30.26-45.39h30.26v-15.12h15.13v-30.26h-45.39z"/><path d="m394.3 129.87v-105.87h105.91v15.1h-75.65v30.26h60.52v15.12h-60.52v30.26h75.65v15.13z"/><path d="m636.37 129.87v-105.87h30.26v15.1h15.13v15.13h15.13v-15.13h15.11v-15.1h30.25v105.9h-30.25v-60.54h-15.11v30.25h-15.13v-30.25h-15.13v60.51z"/><path d="m757.4 129.87v-105.87h105.91v15.1h-75.65v30.26h60.52v15.12h-60.52v30.26h75.65v15.13z"/></g><path d="m42.2 138.87v-105.87h30.26v45.36h45.39v-45.36h30.26v105.9h-30.26v-45.42h-45.39v45.39z" fill="#c9c9c9"/><path d="m178.37 138.87v-15.13h30.25v-75.64h-30.25v-15.1h90.77v15.1h-30.26v75.64h30.26v15.13z" fill="#c9c9c9"/><path d="m284.27 138.87v-105.87h90.78v15.1h15.12v45.38h-30.25v15.13h15.13v15.13h15.12v15.13h-45.38v-15.13h-15.13v-15.13h-15.13v30.26zm30.26-45.39h30.26v-15.12h15.13v-30.26h-45.39z" fill="#c9c9c9"/><path d="m405.3 138.87v-105.87h105.91v15.1h-75.65v30.26h60.52v15.12h-60.52v30.26h75.65v15.13z" fill="#c9c9c9"/><path d="m647.37 138.87v-105.87h30.26v15.1h15.13v15.13h15.13v-15.13h15.11v-15.1h30.25v105.9h-30.25v-60.54h-15.11v30.25h-15.13v-30.25h-15.13v60.51z" fill="#c9c9c9"/><path d="m768.4 138.87v-105.87h105.91v15.1h-75.65v30.26h60.52v15.12h-60.52v30.26h75.65v15.13z" fill="#c9c9c9"/><path d="m52.2 148.87v-105.87h30.26v45.36h45.39v-45.36h30.26v105.9h-30.26v-45.42h-45.39v45.39z" fill="#fff"/><path d="m188.37 148.87v-15.13h30.25v-75.64h-30.25v-15.1h90.77v15.1h-30.26v75.64h30.26v15.13z" fill="#fff"/><path d="m294.27 148.87v-105.87h90.78v15.1h15.12v45.38h-30.25v15.13h15.13v15.13h15.12v15.13h-45.38v-15.13h-15.13v-15.13h-15.13v30.26zm30.26-45.39h30.26v-15.12h15.13v-30.26h-45.39z" fill="#fff"/><path d="m415.3 148.87v-105.87h105.91v15.1h-75.65v30.26h60.52v15.12h-60.52v30.26h75.65v15.13z" fill="#fff"/><path d="m657.37 148.87v-105.87h30.26v15.1h15.13v15.13h15.13v-15.13h15.11v-15.1h30.25v105.9h-30.25v-60.54h-15.11v30.25h-15.13v-30.25h-15.13v60.51z" fill="#fff"/><path d="m778.4 148.87v-105.87h105.91v15.1h-75.65v30.26h60.52v15.12h-60.52v30.26h75.65v15.13z" fill="#fff"/></svg>

<svg xmlns="http://www.w3.org/2000/svg" width="915" height="177" viewBox="0 0 915 177"><title>World_Space</title><g id="Layer_2" data-name="Layer 2"><path d="M31.2,129.87V24H61.46V69.36h45.39V24h30.26v105.9H106.85V84.48H61.46v45.39Z" style="fill:#898989"/><path d="M167.37,129.87V114.74h30.25V39.1H167.37V24h90.77V39.1H227.88v75.64h30.26v15.13Z" style="fill:#898989"/><path d="M273.27,129.87V24h90.78V39.1h15.12V84.48H348.92V99.61h15.13v15.13h15.12v15.13H333.79V114.74H318.66V99.61H303.53v30.26Zm30.26-45.39h30.26V69.36h15.13V39.1H303.53Z" style="fill:#898989"/><path d="M394.3,129.87V24H500.21V39.1H424.56V69.36h60.52V84.48H424.56v30.26h75.65v15.13Z" style="fill:#898989"/><path d="M636.37,129.87V24h30.26V39.1h15.13V54.23h15.13V39.1H712V24h30.25v105.9H712V69.36H696.89V99.61H681.76V69.36H666.63v60.51Z" style="fill:#898989"/><path d="M757.4,129.87V24H863.31V39.1H787.66V69.36h60.52V84.48H787.66v30.26h75.65v15.13Z" style="fill:#898989"/><path d="M42.2,138.87V33H72.46V78.36h45.39V33h30.26v105.9H117.85V93.48H72.46v45.39Z" style="fill:#c9c9c9"/><path d="M178.37,138.87V123.74h30.25V48.1H178.37V33h90.77V48.1H238.88v75.64h30.26v15.13Z" style="fill:#c9c9c9"/><path d="M284.27,138.87V33h90.78V48.1h15.12V93.48H359.92v15.13h15.13v15.13h15.12v15.13H344.79V123.74H329.66V108.61H314.53v30.26Zm30.26-45.39h30.26V78.36h15.13V48.1H314.53Z" style="fill:#c9c9c9"/><path d="M405.3,138.87V33H511.21V48.1H435.56V78.36h60.52V93.48H435.56v30.26h75.65v15.13Z" style="fill:#c9c9c9"/><path d="M647.37,138.87V33h30.26V48.1h15.13V63.23h15.13V48.1H723V33h30.25v105.9H723V78.36H707.89v30.25H692.76V78.36H677.63v60.51Z" style="fill:#c9c9c9"/><path d="M768.4,138.87V33H874.31V48.1H798.66V78.36h60.52V93.48H798.66v30.26h75.65v15.13Z" style="fill:#c9c9c9"/><path d="M52.2,148.87V43H82.46V88.36h45.39V43h30.26v105.9H127.85V103.48H82.46v45.39Z" style="fill:#fff"/><path d="M188.37,148.87V133.74h30.25V58.1H188.37V43h90.77V58.1H248.88v75.64h30.26v15.13Z" style="fill:#fff"/><path d="M294.27,148.87V43h90.78V58.1h15.12v45.38H369.92v15.13h15.13v15.13h15.12v15.13H354.79V133.74H339.66V118.61H324.53v30.26Zm30.26-45.39h30.26V88.36h15.13V58.1H324.53Z" style="fill:#fff"/><path d="M415.3,148.87V43H521.21V58.1H445.56V88.36h60.52v15.12H445.56v30.26h75.65v15.13Z" style="fill:#fff"/><path d="M657.37,148.87V43h30.26V58.1h15.13V73.23h15.13V58.1H733V43h30.25v105.9H733V88.36H717.89v30.25H702.76V88.36H687.63v60.51Z" style="fill:#fff"/><path d="M778.4,148.87V43H884.31V58.1H808.66V88.36h60.52v15.12H808.66v30.26h75.65v15.13Z" style="fill:#fff"/></g></svg>
